symbols/web/screen_rotation/materialsymbolssharp/screen_rotation_wght200grad200fill1_40px.svg

<svg xmlns="http://www.w3.org/2000/svg" height="40" width="40"><path d="M23.333 33.333 6.667 16.667 16.75 6.625 33.375 23.25Zm-3.375 5.959q-3.958 0-7.479-1.521t-6.125-4.125q-2.604-2.604-4.125-6.125T.708 20.042h2.167q0 3.291 1.208 6.27 1.209 2.98 3.354 5.271 2.146 2.292 5.001 3.709 2.854 1.416 6.145 1.625L13 31.417l1.542-1.5 8.958 8.958q-.917.208-1.792.313-.875.104-1.75.104Zm17.167-19.25q0-3.334-1.208-6.313-1.209-2.979-3.313-5.271Q30.5 6.167 27.625 4.75q-2.875-1.417-6.167-1.708L27 8.583l-1.542 1.5L16.5 1.125q.917-.208 1.812-.312.896-.105 1.646-.105 4 0 7.521 1.542t6.125 4.146Q36.208 9 37.75 12.521q1.542 3.521 1.542 7.521Z"/></svg>

<svg xmlns="http://www.w3.org/2000/svg" height="40" width="40"><path d="M23.333 33.333 6.667 16.667 16.75 6.625 33.375 23.25ZM19.958 39.292Q16 39.292 12.479 37.771Q8.958 36.25 6.354 33.646Q3.75 31.042 2.229 27.521Q0.708 24 0.708 20.042H2.875Q2.875 23.333 4.083 26.312Q5.292 29.292 7.437 31.583Q9.583 33.875 12.438 35.292Q15.292 36.708 18.583 36.917L13 31.417L14.542 29.917L23.5 38.875Q22.583 39.083 21.708 39.188Q20.833 39.292 19.958 39.292ZM37.125 20.042Q37.125 16.708 35.917 13.729Q34.708 10.75 32.604 8.458Q30.5 6.167 27.625 4.75Q24.75 3.333 21.458 3.042L27 8.583L25.458 10.083L16.5 1.125Q17.417 0.917 18.312 0.813Q19.208 0.708 19.958 0.708Q23.958 0.708 27.479 2.25Q31 3.792 33.604 6.396Q36.208 9 37.75 12.521Q39.292 16.042 39.292 20.042Z"/></svg>
